X: 97
T:Reel a R'emi
R:reel
S:Pierre Schryer
N:Follo
Z:Alf -> Alf 
M:C|
L:1/8
K:D
FD (3DDD DFAd|BGGF G2ed|cA (3AAA Aceg|[1 fddc dBAG:|[2 fdec d2ef
|:g2{a}gf g2b2|abaf dfaf|gece Aceg|[1 fddc d^def:|[2 fddc dBAG|]
